X: 1
T: Bundle and Go
T: I Lost My Love
R: jig
Z: 2007 John Chambers <jc:trillian.mit.edu>
S: Susan Songer & Clyde Curley "The Portland Collection" v.1 p.43 1997
M: 6/8
L: 1/8
K: Em
   D \
| "Em"E3  EDB, | "G"G3  GAB |  "D"A3  A[BF]A | "Bm"d3 d2e \
|  "G"dBG GAB  | "D"AFE DEF | "Em"GFE "D"FED | "Em"E3 E2 :|
|: A \
| "Em"Bee edB  | "D"Add def | "Em"~e3    edB |  "D"d3 d2e \
|  "G"dBG GAB  | "D"AFE DEF | "Em"GFE "D"FED | "Em"E3 E2 :|
